X: 10415
T: Donald McLennan's Exercise
R: slip jig
M: 9/8
K: Bminor
Bff fef fBB|dff cee ecA|
dff afa aff|dff afd cee|
dag fag fBc|dag fdf eAc|
dfe efe fBc|dfd caf eAc|
dfa fda fef|dfa fda f2 e|
dfd ede f3|dfd edf e3|

